flaticon/grooming/makeup-5.svg

<svg xmlns="http://www.w3.org/2000/svg" width="32" height="32" viewBox="0 0 24 24">
    <path d="M 19.621094 7.242188 C 17.730469 5.957031 15.496094 5.214844 13.109375 5.078125 L 15.199219 3.285156 C 15.257812 3.242188 15.296875 3.179688 15.324219 3.113281 C 15.582031 3.273438 15.886719 3.367188 16.210938 3.367188 C 17.136719 3.367188 17.894531 2.609375 17.894531 1.683594 C 17.894531 0.757812 17.136719 0 16.210938 0 C 15.285156 0 14.527344 0.757812 14.527344 1.683594 C 14.527344 2.007812 14.621094 2.3125 14.78125 2.570312 C 14.734375 2.589844 14.691406 2.613281 14.652344 2.652344 L 11.980469 4.945312 L 9.304688 2.652344 C 9.277344 2.625 9.246094 2.601562 9.210938 2.585938 C 9.375 2.324219 9.472656 2.015625 9.472656 1.683594 C 9.472656 0.757812 8.714844 0 7.789062 0 C 6.863281 0 6.105469 0.757812 6.105469 1.683594 C 6.105469 2.609375 6.863281 3.367188 7.789062 3.367188 C 8.101562 3.367188 8.398438 3.28125 8.648438 3.128906 C 8.675781 3.183594 8.710938 3.238281 8.757812 3.285156 L 10.855469 5.082031 C 8.511719 5.238281 6.324219 5.976562 4.464844 7.242188 C 1.683594 9.136719 0.210938 11.707031 0.210938 14.738281 L 0.210938 20.757812 C 0.210938 22.570312 1.683594 24 3.453125 24 L 20.546875 24 C 22.359375 24 23.789062 22.570312 23.789062 20.757812 L 23.789062 14.738281 C 23.789062 11.707031 22.316406 9.136719 19.621094 7.242188 Z M 16.210938 0.84375 C 16.671875 0.84375 17.050781 1.222656 17.050781 1.683594 C 17.050781 2.148438 16.671875 2.527344 16.210938 2.527344 C 15.746094 2.527344 15.367188 2.148438 15.367188 1.683594 C 15.367188 1.222656 15.746094 0.84375 16.210938 0.84375 Z M 7.789062 2.527344 C 7.328125 2.527344 6.949219 2.148438 6.949219 1.683594 C 6.949219 1.222656 7.328125 0.84375 7.789062 0.84375 C 8.253906 0.84375 8.632812 1.222656 8.632812 1.683594 C 8.632812 2.148438 8.253906 2.527344 7.789062 2.527344 Z M 22.988281 20.757812 C 22.988281 22.105469 21.894531 23.15625 20.589844 23.15625 L 3.453125 23.15625 C 2.105469 23.15625 1.050781 22.0625 1.050781 20.757812 L 1.050781 14.738281 C 1.050781 11.957031 2.359375 9.683594 4.925781 7.914062 C 6.863281 6.609375 9.222656 5.894531 11.746094 5.894531 C 11.746094 5.894531 12.292969 5.894531 12.292969 5.894531 C 14.777344 5.894531 17.136719 6.570312 19.117188 7.914062 C 21.683594 9.683594 22.988281 11.957031 22.988281 14.738281 Z M 22.988281 20.757812"/>
    <path d="M18.148438 8.925781C16.421875 7.746094 14.359375 7.117188 12.167969 7.117188L11.789062 7.117188C9.601562 7.117188 7.535156 7.746094 5.808594 8.925781 3.535156 10.484375 2.316406 12.632812 2.316406 15.117188 2.316406 15.367188 2.484375 15.535156 2.738281 15.535156 2.988281 15.535156 3.15625 15.367188 3.15625 15.117188 3.15625 12.882812 4.210938 11.074219 6.316406 9.640625 7.875 8.589844 9.808594 8 11.832031 8L12.210938 8C14.230469 8 16.125 8.546875 17.726562 9.640625 19.789062 11.03125 20.84375 12.882812 20.84375 15.117188 20.84375 15.367188 21.011719 15.535156 21.261719 15.535156 21.472656 15.535156 21.683594 15.367188 21.640625 15.117188 21.640625 12.589844 20.421875 10.484375 18.148438 8.925781zM5.683594 21.050781C4.292969 21.050781 3.15625 19.914062 3.15625 18.527344 3.15625 18.273438 2.988281 18.105469 2.738281 18.105469 2.484375 18.105469 2.316406 18.273438 2.316406 18.527344 2.316406 20.378906 3.832031 21.894531 5.683594 21.894531 5.9375 21.894531 6.105469 21.726562 6.105469 21.472656 6.105469 21.222656 5.9375 21.050781 5.683594 21.050781zM21.261719 18.105469C21.011719 18.105469 20.84375 18.273438 20.84375 18.527344 20.84375 19.914062 19.707031 21.050781 18.316406 21.050781 18.0625 21.050781 17.894531 21.222656 17.894531 21.472656 17.894531 21.726562 18.0625 21.894531 18.316406 21.894531 20.167969 21.894531 21.683594 20.378906 21.683594 18.527344 21.683594 18.273438 21.515625 18.105469 21.261719 18.105469zM21.261719 18.105469"/>
</svg>

<svg xmlns="http://www.w3.org/2000/svg" width="32" height="32" viewBox="0 0 24 24">
    <path d="M19.621 7.242c-1.89-1.285-4.125-2.027-6.512-2.164l2.09-1.793a.393.393 0 0 0 .125-.172c.258.16.563.254.887.254.926 0 1.684-.758 1.684-1.683C17.895.758 17.137 0 16.21 0c-.926 0-1.684.758-1.684 1.684 0 .324.094.629.254.886a.38.38 0 0 0-.129.082L11.98 4.945 9.305 2.652a.315.315 0 0 0-.094-.066c.164-.262.262-.57.262-.902C9.473.758 8.715 0 7.789 0c-.926 0-1.684.758-1.684 1.684 0 .925.758 1.683 1.684 1.683.313 0 .61-.086.86-.238.027.055.062.11.109.156l2.097 1.797c-2.343.156-4.53.895-6.39 2.16C1.684 9.137.21 11.707.21 14.738v6.02A3.242 3.242 0 0 0 3.453 24h17.094a3.215 3.215 0 0 0 3.242-3.242v-6.02c0-3.031-1.473-5.601-4.168-7.496zM16.211.844c.46 0 .84.379.84.84a.844.844 0 0 1-.84.843.845.845 0 0 1-.844-.843c0-.461.38-.84.844-.84zM7.789 2.527a.844.844 0 0 1-.84-.843c0-.461.38-.84.84-.84.465 0 .844.379.844.84a.845.845 0 0 1-.844.843zm15.2 18.23a2.396 2.396 0 0 1-2.4 2.4H3.454a2.4 2.4 0 0 1-2.402-2.4v-6.019c0-2.781 1.308-5.054 3.875-6.824 1.937-1.305 4.297-2.02 6.82-2.02h.547c2.484 0 4.844.676 6.824 2.02 2.567 1.77 3.871 4.043 3.871 6.824zm0 0"/>
    <path d="M18.148 8.926c-1.726-1.18-3.789-1.809-5.98-1.809h-.379c-2.187 0-4.254.63-5.98 1.809-2.274 1.558-3.493 3.707-3.493 6.191 0 .25.168.418.422.418.25 0 .418-.168.418-.418 0-2.234 1.055-4.043 3.16-5.476C7.875 8.59 9.81 8 11.832 8h.379c2.02 0 3.914.547 5.516 1.64 2.062 1.391 3.117 3.243 3.117 5.477 0 .25.168.418.418.418.21 0 .422-.168.379-.418 0-2.527-1.22-4.633-3.493-6.191zm0 0M5.684 21.05a2.533 2.533 0 0 1-2.528-2.523c0-.254-.168-.422-.418-.422-.254 0-.422.168-.422.422a3.378 3.378 0 0 0 3.368 3.368c.253 0 .421-.168.421-.422 0-.25-.168-.422-.421-.422zm0 0M21.262 18.105c-.25 0-.418.168-.418.422a2.533 2.533 0 0 1-2.528 2.524c-.253 0-.421.172-.421.422 0 .254.168.422.421.422a3.378 3.378 0 0 0 3.368-3.368c0-.254-.168-.422-.422-.422zm0 0"/>
</svg>
